icons/register_book.svg

<svg width="48" height="48" viewBox="0 0 48 48" fill="none" xmlns="http://www.w3.org/2000/svg">
<path d="M11.0104 21.0026C14.6795 20.9646 16.7269 21.3354 20.622 22.9258L21.378 21.0742C17.2509 19.389 14.9401 18.9618 10.9896 19.0027L11.0104 21.0026Z" fill="black"/>
<path d="M20.622 26.9258C16.7269 25.3354 14.6795 24.9646 11.0104 25.0026L10.9896 23.0027C14.9401 22.9618 17.2509 23.389 21.378 25.0742L20.622 26.9258Z" fill="black"/>
<path d="M11.0104 29.0026C14.6795 28.9646 16.7269 29.3354 20.622 30.9258L21.378 29.0742C17.2509 27.389 14.9401 26.9618 10.9896 27.0027L11.0104 29.0026Z" fill="black"/>
<path d="M36.9896 29.0026C33.3205 28.9646 31.2731 29.3354 27.378 30.9258L26.622 29.0742C30.7491 27.389 33.0599 26.9618 37.0103 27.0027L36.9896 29.0026Z" fill="black"/>
<path d="M27.378 26.9258C31.2731 25.3354 33.3205 24.9646 36.9896 25.0026L37.0103 23.0027C33.0599 22.9618 30.7491 23.389 26.622 25.0742L27.378 26.9258Z" fill="black"/>
<path d="M36.9896 21.0026C33.3205 20.9646 31.2731 21.3354 27.378 22.9258L26.622 21.0742C30.7491 19.389 33.0599 18.9618 37.0103 19.0027L36.9896 21.0026Z" fill="black"/>
<path d="M13.5 16V13H11.5V16H13.5Z" fill="black"/>
<path d="M17 14V17H15V14H17Z" fill="black"/>
<path d="M20.5 18V15H18.5V18H20.5Z" fill="black"/>
<path d="M34.5 16V13H36.5V16H34.5Z" fill="black"/>
<path d="M31 14V17H33V14H31Z" fill="black"/>
<path d="M27.5 18V15H29.5V18H27.5Z" fill="black"/>
<path fill-rule="evenodd" clip-rule="evenodd" d="M24 11.2401C24.0863 11.2217 24.1723 11.2035 24.2579 11.1855C29.2537 8.7786 33.559 7.04884 39.5261 8.57671C40.4175 8.80494 41 9.61248 41 10.492V10.7733C41.7202 10.9178 42.4658 11.0833 43.2434 11.2707C43.6888 11.378 44 11.7783 44 12.2364V37.7749C44 38.4077 43.4173 38.8804 42.7957 38.7618C36.5832 37.5766 32.3951 37.4936 26.6742 38.3611C26.1781 39.3339 25.1669 40 24 40C22.8331 40 21.8219 39.3339 21.3258 38.3611C15.6049 37.4936 11.4168 37.5766 5.20425 38.7618C4.58268 38.8804 4 38.4077 4 37.7749V12.2364C4 11.7783 4.31119 11.378 4.75659 11.2707C5.53424 11.0833 6.27982 10.9178 7 10.7733V10.492C7 9.61248 7.58253 8.80494 8.47389 8.57671C14.441 7.04884 18.7464 8.77861 23.7421 11.1855C23.8277 11.2035 23.9136 11.2217 24 11.2401ZM25 13.0471C29.9792 10.6426 33.7339 9.16738 39 10.5065V33.0552C39 33.0552 38.9967 33.0602 38.9925 33.0635C38.9782 33.075 38.9597 33.0801 38.9396 33.0764C34.0407 32.1775 30.259 33.1127 26.1446 34.9023C25.8272 34.5778 25.4368 34.3251 25 34.1707V13.0471ZM23 13.0481L23 34.1707C22.5632 34.3251 22.1728 34.5778 21.8554 34.9023C17.741 33.1127 13.9593 32.1775 9.06045 33.0764C9.04034 33.0801 9.02183 33.075 9.00746 33.0635L9.00594 33.0622C9.00252 33.059 9 33.0552 9 33.0552V10.5065C14.2661 9.16738 18.0208 10.6436 23 13.0481ZM42 13.0333C41.6604 12.9558 41.3273 12.883 41 12.8146V33.0552C41 34.3654 39.7896 35.2657 38.5786 35.0435C34.8028 34.3507 31.7784 34.8512 28.5061 36.0963C33.0792 35.5628 36.9344 35.6943 42 36.5827V13.0333ZM19.4939 36.0963C16.2217 34.8512 13.1972 34.3507 9.42139 35.0435C8.2104 35.2657 7 34.3654 7 33.0552V12.8146C6.67271 12.883 6.33962 12.9558 6 13.0333V36.5827C11.0656 35.6943 14.9209 35.5628 19.4939 36.0963Z" fill="black"/>
</svg>

<svg
  xmlns="http://www.w3.org/2000/svg"
  width="24"
  height="24"
  viewBox="0 0 24 24"
  fill="none"
  stroke="currentColor"
  stroke-width="2"
  stroke-linecap="round"
  stroke-linejoin="round"
>
  <path d="M11.01 21.003c3.67-.038 5.717.332 9.612 1.923l.756-1.852c-4.127-1.685-6.438-2.112-10.388-2.071z" />
  <path d="M20.622 26.926c-3.895-1.59-5.942-1.961-9.612-1.923l-.02-2c3.95-.041 6.26.386 10.388 2.071z" />
  <path d="M11.01 29.003c3.67-.038 5.717.332 9.612 1.923l.756-1.852c-4.127-1.685-6.438-2.112-10.388-2.071z" />
  <path d="M36.99 29.003c-3.67-.038-5.717.332-9.612 1.923l-.756-1.852c4.127-1.685 6.438-2.112 10.388-2.071z" />
  <path d="M27.378 26.926c3.895-1.59 5.943-1.961 9.612-1.923l.02-2c-3.95-.041-6.26.386-10.388 2.071z" />
  <path d="M36.99 21.003c-3.67-.038-5.717.332-9.612 1.923l-.756-1.852c4.127-1.685 6.438-2.112 10.388-2.071z" />
  <path d="M13.5 16v-3h-2v3z" />
  <path d="M17 14v3h-2v-3z" />
  <path d="M20.5 18v-3h-2v3z" />
  <path d="M34.5 16v-3h2v3z" />
  <path d="M31 14v3h2v-3z" />
  <path d="M27.5 18v-3h2v3z" />
  <path
    fill-rule="evenodd"
    d="m24 11.24.258-.055c4.996-2.406 9.301-4.136 15.268-2.608A1.97 1.97 0 0 1 41 10.492v.281q1.079.217 2.243.498a.99.99 0 0 1 .757.965v25.539c0 .633-.583 1.105-1.204.987-6.213-1.185-10.4-1.268-16.122-.4a3 3 0 0 1-5.348 0c-5.721-.868-9.91-.785-16.122.4A1.01 1.01 0 0 1 4 37.775V12.236c0-.458.311-.858.757-.965A60 60 0 0 1 7 10.773v-.281c0-.88.583-1.687 1.474-1.915 5.967-1.528 10.272.202 15.268 2.608zm1 1.807c4.98-2.404 8.734-3.88 14-2.54v22.548q0 .002-.008.008a.06.06 0 0 1-.052.013c-4.9-.898-8.681.037-12.795 1.826A3 3 0 0 0 25 34.171zm-2 .001v21.123a3 3 0 0 0-1.145.731c-4.114-1.79-7.896-2.724-12.795-1.826a.06.06 0 0 1-.053-.013h-.001L9 33.054V10.507c5.266-1.34 9.02.137 14 2.541m19-.015q-.51-.116-1-.218v20.24c0 1.31-1.21 2.21-2.421 1.989-3.776-.693-6.8-.193-10.073 1.052 4.573-.533 8.428-.402 13.494.487zM19.494 36.096c-3.272-1.245-6.297-1.745-10.073-1.052C8.211 35.266 7 34.365 7 33.055v-20.24q-.49.102-1 .218v23.55c5.066-.889 8.92-1.02 13.494-.487"
    clip-rule="evenodd"
  />
</svg>
